; generated by Slic3r 1.1.3 on 2014-06-20 at 18:25:35

; perimeters extrusion width = 0.50mm
; infill extrusion width = 0.52mm
; solid infill extrusion width = 0.52mm
; top infill extrusion width = 0.52mm

G21 ; set units to millimeters
G28 ; home all axes
G90 ; use absolute coordinates
G92 E0
M82 ; use absolute distances for extrusion
G1 F1500.000 E-1.40000
G92 E0
G1 Z0.400 F9000.000
G1 X8.076 Y56.281 F9000.000
G1 E1.40000 F1500.000
G1 X10.000 Y56.029 E1.48703 F2700.000
G1 X160.000 Y56.029 E8.21554
G1 X162.404 Y56.426 E8.32484
G1 X164.552 Y57.576 E8.43414
G1 X166.216 Y59.356 E8.54343
G1 X167.219 Y61.576 E8.65273
G1 X167.471 Y63.500 E8.73976
G1 X167.471 Y96.500 E10.22004
G1 X167.074 Y98.904 E10.32933
G1 X165.924 Y101.052 E10.43863
G1 X164.144 Y102.716 E10.54793
G1 X161.924 Y103.719 E10.65723
G1 X160.000 Y103.971 E10.74426
G1 X10.000 Y103.971 E17.47277
G1 X7.596 Y103.574 E17.58207
G1 X5.448 Y102.424 E17.69136
G1 X3.784 Y100.644 E17.80066
G1 X2.781 Y98.424 E17.90996
G1 X2.529 Y96.500 E17.99699
G1 X2.529 Y63.500 E19.47726
G1 X2.926 Y61.096 E19.58656
G1 X4.076 Y58.948 E19.69586
G1 X5.856 Y57.284 E19.80515
G1 X8.008 Y56.312 E19.91109
G1 X8.724 Y56.886 F9000.000
G1 X10.000 Y56.764 E19.96858 F2700.000
G1 X160.000 Y56.764 E26.69709
G1 X162.278 Y57.161 E26.80082
G1 X164.288 Y58.306 E26.90456
G1 X165.792 Y60.062 E27.00830
G1 X166.614 Y62.224 E27.11204
G1 X166.736 Y63.500 E27.16953
G1 X166.736 Y96.500 E28.64980
G1 X166.339 Y98.778 E28.75354
G1 X165.194 Y100.788 E28.85728
G1 X163.438 Y102.292 E28.96102
G1 X161.276 Y103.114 E29.06476
G1 X160.000 Y103.236 E29.12225
G1 X10.000 Y103.236 E35.85076
G1 X7.722 Y102.839 E35.95450
G1 X5.712 Y101.694 E36.05823
G1 X4.208 Y99.938 E36.16197
G1 X3.386 Y97.776 E36.26571
G1 X3.264 Y96.500 E36.32320
G1 X3.264 Y63.500 E37.80347
G1 X3.661 Y61.222 E37.90721
G1 X4.806 Y59.212 E38.01095
G1 X6.562 Y57.708 E38.11469
G1 X8.654 Y56.913 E38.21507
G1 F1500.000 E36.81507
G92 E0
G1 X143.927 Y90.504 F9000.000
G1 E1.40000 F1500.000
G1 X142.927 Y90.090 E1.44854 F2700.000
G1 X142.229 Y89.554 E1.48804
G1 X142.069 Y89.431 E1.49709
G1 X141.410 Y88.573 E1.54563
G1 X140.996 Y87.573 E1.59417
G1 X140.855 Y86.500 E1.64271
G1 X140.996 Y85.427 E1.69126
G1 X141.410 Y84.427 E1.73980
G1 X141.946 Y83.729 E1.77929
G1 X142.069 Y83.569 E1.78834
G1 X142.927 Y82.910 E1.83688
G1 X143.927 Y82.496 E1.88543
G1 X145.000 Y82.355 E1.93397
G1 X146.073 Y82.496 E1.98251
G1 X147.073 Y82.910 E2.03105
G1 X147.771 Y83.446 E2.07055
G1 X147.931 Y83.569 E2.07960
G1 X148.590 Y84.427 E2.12814
G1 X149.004 Y85.427 E2.17668
G1 X149.145 Y86.500 E2.22522
G1 X149.004 Y87.573 E2.27377
G1 X148.590 Y88.573 E2.32231
G1 X147.931 Y89.431 E2.37085
G1 X147.073 Y90.090 E2.41939
G1 X146.073 Y90.504 E2.46794
G1 X145.000 Y90.645 E2.51648
G1 X144.001 Y90.514 E2.56166
G1 X144.119 Y89.787 F9000.000
G1 X143.298 Y89.447 E2.60151 F1890.000
G1 X142.677 Y88.970 E2.63666
G1 X142.593 Y88.907 E2.64137
G1 X142.053 Y88.202 E2.68122
G1 X141.713 Y87.381 E2.72108
G1 X141.597 Y86.500 E2.76093
G1 X141.713 Y85.619 E2.80079
G1 X142.053 Y84.798 E2.84064
G1 X142.530 Y84.177 E2.87579
G1 X142.593 Y84.093 E2.88049
G1 X143.298 Y83.553 E2.92035
G1 X144.119 Y83.213 E2.96020
G1 X145.000 Y83.097 E3.00006
G1 X145.881 Y83.213 E3.03991
G1 X146.702 Y83.553 E3.07977
G1 X147.323 Y84.030 E3.11492
G1 X147.407 Y84.093 E3.11962
G1 X147.947 Y84.798 E3.15947
G1 X148.287 Y85.619 E3.19933
G1 X148.403 Y86.500 E3.23918
G1 X148.287 Y87.381 E3.27904
G1 X147.947 Y88.202 E3.31889
G1 X147.470 Y88.823 E3.35404
G1 X147.407 Y88.907 E3.35875
G1 X146.702 Y89.447 E3.39860
G1 X145.881 Y89.787 E3.43845
G1 X145.000 Y89.903 E3.47831
G1 X144.193 Y89.797 E3.51480
G1 X143.750 Y90.125 F9000.000
G1 F1500.000 E2.11480
G92 E0
G1 X145.000 Y78.645 F9000.000
G1 E1.40000 F1500.000
G1 X143.668 Y78.470 E1.46025 F2700.000
G1 X142.427 Y77.956 E1.52051
G1 X141.362 Y77.138 E1.58076
G1 X140.544 Y76.073 E1.64101
G1 X140.030 Y74.832 E1.70126
G1 X139.855 Y73.500 E1.76152
G1 X140.001 Y72.385 E1.81194
G1 X140.030 Y72.168 E1.82177
G1 X140.544 Y70.927 E1.88202
G1 X141.362 Y69.862 E1.94227
G1 X142.427 Y69.044 E2.00253
G1 X143.668 Y68.530 E2.06278
G1 X145.000 Y68.355 E2.12303
G1 X146.114 Y68.501 E2.17346
G1 X146.332 Y68.530 E2.18329
G1 X147.573 Y69.044 E2.24354
G1 X148.638 Y69.862 E2.30379
G1 X149.456 Y70.927 E2.36404
G1 X149.970 Y72.168 E2.42430
G1 X150.145 Y73.500 E2.48455
G1 X149.999 Y74.614 E2.53497
G1 X149.970 Y74.832 E2.54480
G1 X149.456 Y76.073 E2.60505
G1 X148.638 Y77.138 E2.66530
G1 X147.573 Y77.956 E2.72556
G1 X146.332 Y78.470 E2.78581
G1 X145.074 Y78.636 E2.84270
G1 X145.000 Y77.903 F9000.000
G1 X143.860 Y77.753 E2.89426 F1890.000
G1 X142.798 Y77.314 E2.94583
G1 X141.886 Y76.614 E2.99739
G1 X141.186 Y75.702 E3.04896
G1 X140.747 Y74.640 E3.10052
G1 X140.597 Y73.500 E3.15209
G1 X140.731 Y72.482 E3.19817
G1 X140.747 Y72.360 E3.20365
G1 X141.187 Y71.298 E3.25521
G1 X141.886 Y70.386 E3.30678
G1 X142.798 Y69.686 E3.35834
G1 X143.860 Y69.247 E3.40991
G1 X145.000 Y69.097 E3.46147
G1 X146.018 Y69.231 E3.50755
G1 X146.140 Y69.247 E3.51304
G1 X147.202 Y69.686 E3.56460
G1 X148.114 Y70.386 E3.61616
G1 X148.813 Y71.298 E3.66773
G1 X149.253 Y72.360 E3.71929
G1 X149.403 Y73.500 E3.77086
G1 X149.269 Y74.518 E3.81694
G1 X149.253 Y74.640 E3.82242
G1 X148.813 Y75.702 E3.87398
G1 X148.114 Y76.614 E3.92555
G1 X147.202 Y77.314 E3.97711
G1 X146.140 Y77.753 E4.02868
G1 X145.074 Y77.894 E4.07688
G1 X144.731 Y78.325 F9000.000
G1 X105.395 Y73.000 F9000.000
G1 X105.212 Y74.396 E4.14006 F2700.000
G1 X104.673 Y75.698 E4.20324
G1 X103.815 Y76.815 E4.26642
G1 X102.698 Y77.673 E4.32960
G1 X101.396 Y78.212 E4.39278
G1 X100.000 Y78.395 E4.45596
G1 X98.604 Y78.212 E4.51914
G1 X97.302 Y77.673 E4.58232
G1 X96.185 Y76.815 E4.64550
G1 X95.327 Y75.698 E4.70868
G1 X94.788 Y74.396 E4.77186
G1 X94.605 Y73.000 E4.83504
G1 X94.788 Y71.604 E4.89822
G1 X95.327 Y70.302 E4.96140
G1 X96.185 Y69.185 E5.02458
G1 X97.302 Y68.327 E5.08776
G1 X98.397 Y67.874 E5.14091
G1 X98.604 Y67.788 E5.15094
G1 X100.000 Y67.605 E5.21412
G1 X101.396 Y67.788 E5.27730
G1 X102.698 Y68.327 E5.34048
G1 X103.815 Y69.185 E5.40366
G1 X104.673 Y70.302 E5.46684
G1 X105.212 Y71.604 E5.53002
G1 X105.386 Y72.926 E5.58984
G1 X104.653 Y73.000 F9000.000
G1 X104.495 Y74.204 E5.64433 F1890.000
G1 X104.030 Y75.327 E5.69882
G1 X103.290 Y76.290 E5.75331
G1 X102.327 Y77.030 E5.80780
G1 X101.204 Y77.495 E5.86229
G1 X100.000 Y77.653 E5.91679
G1 X98.796 Y77.495 E5.97128
G1 X97.673 Y77.030 E6.02577
G1 X96.710 Y76.290 E6.08026
G1 X95.970 Y75.327 E6.13475
G1 X95.505 Y74.204 E6.18925
G1 X95.347 Y73.000 E6.24374
G1 X95.505 Y71.796 E6.29823
G1 X95.970 Y70.673 E6.35272
G1 X96.710 Y69.710 E6.40721
G1 X97.673 Y68.970 E6.46170
G1 X98.679 Y68.554 E6.51052
G1 X98.796 Y68.505 E6.51620
G1 X100.000 Y68.347 E6.57069
G1 X101.204 Y68.505 E6.62518
G1 X102.327 Y68.970 E6.67967
G1 X103.290 Y69.710 E6.73416
G1 X104.030 Y70.673 E6.78865
G1 X104.495 Y71.796 E6.84315
G1 X104.644 Y72.926 E6.89427
G1 X105.075 Y73.269 F9000.000
G1 X101.396 Y81.788 F9000.000
G1 X102.698 Y82.327 E6.95745 F2700.000
G1 X103.815 Y83.185 E7.02063
G1 X104.673 Y84.302 E7.08381
G1 X105.212 Y85.604 E7.14699
G1 X105.395 Y87.000 E7.21017
G1 X105.212 Y88.396 E7.27335
G1 X104.673 Y89.698 E7.33653
G1 X103.815 Y90.815 E7.39971
G1 X102.698 Y91.673 E7.46289
G1 X101.396 Y92.212 E7.52607
G1 X100.000 Y92.395 E7.58925
G1 X98.604 Y92.212 E7.65243
G1 X97.302 Y91.673 E7.71561
G1 X96.185 Y90.815 E7.77879
G1 X95.327 Y89.698 E7.84197
G1 X94.788 Y88.396 E7.90515
G1 X94.605 Y87.000 E7.96833
G1 X94.788 Y85.604 E8.03151
G1 X95.327 Y84.302 E8.09469
G1 X96.185 Y83.185 E8.15788
G1 X97.302 Y82.327 E8.22105
G1 X98.604 Y81.788 E8.28424
G1 X100.000 Y81.605 E8.34741
G1 X101.322 Y81.779 E8.40723
G1 X101.204 Y82.505 F9000.000
G1 X102.327 Y82.970 E8.46172 F1890.000
G1 X103.290 Y83.710 E8.51622
G1 X104.030 Y84.673 E8.57071
G1 X104.495 Y85.796 E8.62520
G1 X104.653 Y87.000 E8.67969
G1 X104.495 Y88.204 E8.73418
G1 X104.030 Y89.327 E8.78867
G1 X103.290 Y90.290 E8.84317
G1 X102.327 Y91.030 E8.89766
G1 X101.204 Y91.495 E8.95215
G1 X100.000 Y91.653 E9.00664
G1 X98.796 Y91.495 E9.06113
G1 X97.673 Y91.030 E9.11562
G1 X96.710 Y90.290 E9.17012
G1 X95.970 Y89.327 E9.22461
G1 X95.505 Y88.204 E9.27910
G1 X95.347 Y87.000 E9.33359
G1 X95.505 Y85.796 E9.38808
G1 X95.970 Y84.673 E9.44257
G1 X96.710 Y83.710 E9.49707
G1 X97.673 Y82.970 E9.55156
G1 X98.796 Y82.505 E9.60605
G1 X100.000 Y82.347 E9.66054
G1 X101.130 Y82.495 E9.71167
G1 X101.573 Y82.167 F9000.000
G1 F1500.000 E8.31167
G92 E0
G1 X45.395 Y87.000 F9000.000
G1 E1.40000 F1500.000
G1 X45.212 Y88.396 E1.46318 F2700.000
G1 X44.673 Y89.698 E1.52636
G1 X43.815 Y90.815 E1.58954
G1 X42.698 Y91.673 E1.65272
G1 X41.396 Y92.212 E1.71590
G1 X40.000 Y92.395 E1.77908
G1 X38.825 Y92.241 E1.83224
G1 X38.604 Y92.212 E1.84226
G1 X37.302 Y91.673 E1.90544
G1 X36.185 Y90.815 E1.96862
G1 X35.327 Y89.698 E2.03180
G1 X34.788 Y88.396 E2.09498
G1 X34.605 Y87.000 E2.15816
G1 X34.759 Y85.825 E2.21132
G1 X34.788 Y85.604 E2.22134
G1 X35.327 Y84.302 E2.28452
G1 X36.185 Y83.185 E2.34770
G1 X37.302 Y82.327 E2.41088
G1 X38.604 Y81.788 E2.47406
G1 X40.000 Y81.605 E2.53724
G1 X41.175 Y81.759 E2.59040
G1 X41.396 Y81.788 E2.60042
G1 X42.698 Y82.327 E2.66360
G1 X43.815 Y83.185 E2.72678
G1 X44.673 Y84.302 E2.78996
G1 X45.212 Y85.604 E2.85314
G1 X45.386 Y86.926 E2.91296
G1 X44.653 Y87.000 F9000.000
G1 X44.495 Y88.204 E2.96745 F1890.000
G1 X44.030 Y89.327 E3.02194
G1 X43.290 Y90.290 E3.07643
G1 X42.327 Y91.030 E3.13093
G1 X41.204 Y91.495 E3.18542
G1 X40.000 Y91.653 E3.23991
G1 X38.921 Y91.511 E3.28872
G1 X38.796 Y91.495 E3.29440
G1 X37.673 Y91.030 E3.34889
G1 X36.710 Y90.290 E3.40339
G1 X35.970 Y89.327 E3.45788
G1 X35.505 Y88.204 E3.51237
G1 X35.347 Y87.000 E3.56686
G1 X35.489 Y85.921 E3.61567
G1 X35.505 Y85.796 E3.62135
G1 X35.970 Y84.673 E3.67584
G1 X36.710 Y83.710 E3.73034
G1 X37.673 Y82.970 E3.78483
G1 X38.796 Y82.505 E3.83932
G1 X40.000 Y82.347 E3.89381
G1 X41.079 Y82.489 E3.94262
G1 X41.204 Y82.505 E3.94830
G1 X42.327 Y82.970 E4.00279
G1 X43.290 Y83.710 E4.05729
G1 X44.030 Y84.673 E4.11178
G1 X44.495 Y85.796 E4.16627
G1 X44.644 Y86.926 E4.21740
G1 X45.075 Y87.269 F9000.000
G1 X41.396 Y78.212 F9000.000
G1 X40.000 Y78.395 E4.28058 F2700.000
G1 X38.825 Y78.241 E4.33373
G1 X38.604 Y78.212 E4.34376
G1 X37.302 Y77.673 E4.40694
G1 X36.185 Y76.815 E4.47012
G1 X35.327 Y75.698 E4.53330
G1 X34.788 Y74.396 E4.59648
G1 X34.605 Y73.000 E4.65966
G1 X34.759 Y71.825 E4.71281
G1 X34.788 Y71.604 E4.72284
G1 X35.327 Y70.302 E4.78602
G1 X36.185 Y69.185 E4.84920
G1 X37.125 Y68.463 E4.90235
G1 X37.302 Y68.327 E4.91238
G1 X38.604 Y67.788 E4.97556
G1 X40.000 Y67.605 E5.03874
G1 X41.175 Y67.759 E5.09189
G1 X41.396 Y67.788 E5.10192
G1 X42.698 Y68.327 E5.16510
G1 X43.815 Y69.185 E5.22828
G1 X44.673 Y70.302 E5.29146
G1 X45.212 Y71.604 E5.35464
G1 X45.395 Y73.000 E5.41782
G1 X45.241 Y74.175 E5.47097
G1 X45.212 Y74.396 E5.48100
G1 X44.673 Y75.698 E5.54418
G1 X43.815 Y76.815 E5.60736
G1 X42.698 Y77.673 E5.67054
G1 X41.466 Y78.183 E5.73036
G1 X41.204 Y77.495 F9000.000
G1 X40.000 Y77.653 E5.78485 F1890.000
G1 X38.921 Y77.511 E5.83366
G1 X38.796 Y77.495 E5.83934
G1 X37.673 Y77.030 E5.89383
G1 X36.710 Y76.290 E5.94832
G1 X35.970 Y75.327 E6.00281
G1 X35.505 Y74.204 E6.05731
G1 X35.347 Y73.000 E6.11180
G1 X35.489 Y71.921 E6.16061
G1 X35.505 Y71.796 E6.16629
G1 X35.970 Y70.673 E6.22078
G1 X36.710 Y69.710 E6.27527
G1 X37.673 Y68.970 E6.32976
G1 X38.796 Y68.505 E6.38426
G1 X40.000 Y68.347 E6.43875
G1 X41.079 Y68.489 E6.48756
G1 X41.204 Y68.505 E6.49324
G1 X42.327 Y68.970 E6.54773
G1 X43.290 Y69.710 E6.60222
G1 X44.030 Y70.673 E6.65671
G1 X44.495 Y71.796 E6.71121
G1 X44.653 Y73.000 E6.76570
G1 X44.511 Y74.079 E6.81451
G1 X44.495 Y74.204 E6.82019
G1 X44.030 Y75.327 E6.87468
G1 X43.290 Y76.290 E6.92917
G1 X42.327 Y77.030 E6.98366
G1 X41.274 Y77.466 E7.03479
G1 X41.054 Y77.972 F9000.000
G1 X64.788 Y74.396 F9000.000
G1 X64.605 Y73.000 E7.09797 F2700.000
G1 X64.788 Y71.604 E7.16115
G1 X65.327 Y70.302 E7.22433
G1 X66.185 Y69.185 E7.28751
G1 X67.302 Y68.327 E7.35069
G1 X68.397 Y67.874 E7.40385
G1 X68.604 Y67.788 E7.41387
G1 X70.000 Y67.605 E7.47705
G1 X71.396 Y67.788 E7.54023
G1 X72.698 Y68.327 E7.60341
G1 X73.815 Y69.185 E7.66659
G1 X74.673 Y70.302 E7.72977
G1 X75.212 Y71.604 E7.79295
G1 X75.395 Y73.000 E7.85613
G1 X75.212 Y74.396 E7.91931
G1 X74.673 Y75.698 E7.98249
G1 X73.815 Y76.815 E8.04567
G1 X72.698 Y77.673 E8.10885
G1 X71.396 Y78.212 E8.17203
G1 X70.000 Y78.395 E8.23521
G1 X68.604 Y78.212 E8.29840
G1 X67.302 Y77.673 E8.36157
G1 X66.185 Y76.815 E8.42475
G1 X65.327 Y75.698 E8.48794
G1 X64.817 Y74.466 E8.54775
G1 X65.505 Y74.204 F9000.000
G1 X65.347 Y73.000 E8.60224 F1890.000
G1 X65.505 Y71.796 E8.65673
G1 X65.970 Y70.673 E8.71123
G1 X66.710 Y69.710 E8.76572
G1 X67.673 Y68.970 E8.82021
G1 X68.679 Y68.554 E8.86902
G1 X68.796 Y68.505 E8.87470
G1 X70.000 Y68.347 E8.92919
G1 X71.204 Y68.505 E8.98369
G1 X72.327 Y68.970 E9.03818
G1 X73.290 Y69.710 E9.09267
G1 X74.030 Y70.673 E9.14716
G1 X74.495 Y71.796 E9.20165
G1 X74.653 Y73.000 E9.25614
G1 X74.495 Y74.204 E9.31064
G1 X74.030 Y75.327 E9.36513
G1 X73.290 Y76.290 E9.41962
G1 X72.327 Y77.030 E9.47411
G1 X71.204 Y77.495 E9.52860
G1 X70.000 Y77.653 E9.58309
G1 X68.796 Y77.495 E9.63759
G1 X67.673 Y77.030 E9.69208
G1 X66.710 Y76.290 E9.74657
G1 X65.970 Y75.327 E9.80106
G1 X65.534 Y74.274 E9.85219
G1 X65.028 Y74.054 F9000.000
G1 X68.604 Y81.788 F9000.000
G1 X70.000 Y81.605 E9.91537 F2700.000
G1 X71.396 Y81.788 E9.97855
G1 X72.698 Y82.327 E10.04173
G1 X73.638 Y83.049 E10.09488
G1 X73.815 Y83.185 E10.10491
G1 X74.673 Y84.302 E10.16809
G1 X75.212 Y85.604 E10.23127
G1 X75.395 Y87.000 E10.29445
G1 X75.212 Y88.396 E10.35763
G1 X74.673 Y89.698 E10.42081
G1 X73.815 Y90.815 E10.48399
G1 X72.698 Y91.673 E10.54717
G1 X71.396 Y92.212 E10.61035
G1 X70.000 Y92.395 E10.67353
G1 X68.604 Y92.212 E10.73671
G1 X67.302 Y91.673 E10.79989
G1 X66.362 Y90.951 E10.85305
G1 X66.185 Y90.815 E10.86307
G1 X65.327 Y89.698 E10.92625
G1 X64.788 Y88.396 E10.98943
G1 X64.605 Y87.000 E11.05261
G1 X64.788 Y85.604 E11.11579
G1 X65.327 Y84.302 E11.17897
G1 X66.185 Y83.185 E11.24215
G1 X67.302 Y82.327 E11.30533
G1 X68.534 Y81.817 E11.36515
G1 X68.796 Y82.505 F9000.000
G1 X70.000 Y82.347 E11.41964 F1890.000
G1 X71.204 Y82.505 E11.47413
G1 X72.327 Y82.970 E11.52862
G1 X73.190 Y83.632 E11.57743
G1 X73.290 Y83.710 E11.58311
G1 X74.030 Y84.673 E11.63761
G1 X74.495 Y85.796 E11.69210
G1 X74.653 Y87.000 E11.74659
G1 X74.495 Y88.204 E11.80108
G1 X74.030 Y89.327 E11.85557
G1 X73.290 Y90.290 E11.91006
G1 X72.327 Y91.030 E11.96456
G1 X71.204 Y91.495 E12.01905
G1 X70.000 Y91.653 E12.07354
G1 X68.796 Y91.495 E12.12803
G1 X67.673 Y91.030 E12.18252
G1 X66.810 Y90.368 E12.23133
G1 X66.710 Y90.290 E12.23701
G1 X65.970 Y89.327 E12.29151
G1 X65.505 Y88.204 E12.34600
G1 X65.347 Y87.000 E12.40049
G1 X65.505 Y85.796 E12.45498
G1 X65.970 Y84.673 E12.50947
G1 X66.710 Y83.710 E12.56396
G1 X67.673 Y82.970 E12.61846
G1 X68.726 Y82.534 E12.66958
G1 X68.946 Y82.028 F9000.000
G1 F1500.000 E11.26958
G92 E0
G1 X11.136 Y95.364 F9000.000
G1 E1.40000 F1500.000
G1 X11.136 Y64.636 E2.77839 F2700.000
G1 X158.864 Y64.636 E9.40502
G1 X158.864 Y95.364 E10.78341
G1 X11.211 Y95.364 E17.40668
G1 X10.400 Y96.100 F9000.000
G1 X10.400 Y63.900 E18.85107 F1890.000
G1 X159.600 Y63.900 E25.54369
G1 X159.600 Y96.100 E26.98808
G1 X10.475 Y96.100 E33.67734
G1 X10.650 Y95.667 F9000.000
G1 X11.649 Y94.817 F9000.000
G1 X11.697 Y94.851 E33.68000 F4050.000
G1 X12.983 Y94.851 E33.73768
G1 X11.649 Y93.917 E33.81075
G1 X11.649 Y93.016 E33.85114
G1 X14.269 Y94.851 E33.99463
G1 X15.555 Y94.851 E34.05231
G1 X11.649 Y92.116 E34.26621
G1 X11.649 Y91.216 E34.30660
G1 X16.841 Y94.851 E34.59092
G1 X18.127 Y94.851 E34.64860
G1 X11.649 Y90.315 E35.00333
G1 X11.649 Y89.415 E35.04372
G1 X19.413 Y94.851 E35.46887
G1 X20.699 Y94.851 E35.52655
G1 X11.649 Y88.514 E36.02211
G1 X11.649 Y87.614 E36.06250
G1 X21.985 Y94.851 E36.62847
G1 X23.270 Y94.851 E36.68615
G1 X11.649 Y86.714 E37.32254
G1 X11.649 Y85.813 E37.36293
G1 X24.556 Y94.851 E38.06974
G1 X25.842 Y94.851 E38.12742
G1 X11.649 Y84.913 E38.90464
