; generated by Slic3r 1.0.0RC1 on 2014-01-20 at 13:41:27

; layer_height = .4
; perimeters = 2
; top_solid_layers = 3
; bottom_solid_layers = 3
; fill_density = 0.5
; perimeter_speed = 60
; infill_speed = 90
; travel_speed = 150
; nozzle_diameter = 0.5
; filament_diameter = 2.89
; extrusion_multiplier = 1
; perimeters extrusion width = 0.50mm
; infill extrusion width = 0.53mm
; solid infill extrusion width = 0.53mm
; top infill extrusion width = 0.53mm
; first layer extrusion width = 0.70mm

G21 ; set units to millimeters
M107
G28 ; home all axes
G90 ; use absolute coordinates
G92 E0
M82 ; use absolute distances for extrusion
G1 F1800.000 E-1.40000
G92 E0
G1 Z0.350 F9000.000
G1 X64.769 Y62.549 F9000.000
G1 E1.40000 F1800.000
G1 X65.599 Y61.849 E1.43807 F1080.000
G1 X66.539 Y61.289 E1.47643
G1 X107.569 Y41.059 E3.08025
G1 X108.859 Y40.579 E3.12850
G1 X110.219 Y40.379 E3.17669
G1 X111.589 Y40.459 E3.22481
G1 X112.919 Y40.829 E3.27321
G1 X114.149 Y41.449 E3.32150
G1 X115.219 Y42.319 E3.36985
G1 X143.509 Y70.589 E4.77200
G1 X144.379 Y71.669 E4.82062
G1 X145.009 Y72.899 E4.86907
G1 X145.369 Y74.239 E4.91771
G1 X145.449 Y75.619 E4.96618
G1 X145.239 Y76.989 E5.01477
G1 X136.449 Y110.409 E6.22629
G1 X136.279 Y110.959 E6.24647
G1 X135.629 Y112.779 E6.31423
G1 X135.379 Y113.379 E6.33702
G1 X134.549 Y115.139 E6.40524
G1 X134.249 Y115.709 E6.42782
G1 X133.259 Y117.369 E6.49558
G1 X132.879 Y117.929 E6.51931
G1 X131.719 Y119.489 E6.58747
G1 X131.309 Y119.999 E6.61041
G1 X130.009 Y121.429 E6.67816
G1 X129.539 Y121.889 E6.70122
G1 X128.099 Y123.189 E6.76923
G1 X127.629 Y123.579 E6.79064
G1 X126.079 Y124.739 E6.85852
G1 X125.499 Y125.129 E6.88302
G1 X123.839 Y126.119 E6.95079
G1 X123.309 Y126.399 E6.97180
G1 X79.289 Y147.479 E8.68293
G1 X78.669 Y147.739 E8.70650
G1 X76.839 Y148.389 E8.77459
G1 X76.219 Y148.579 E8.79732
G1 X74.339 Y149.049 E8.86526
G1 X73.719 Y149.169 E8.88740
G1 X71.799 Y149.459 E8.95548
G1 X71.119 Y149.529 E8.97944
G1 X69.189 Y149.619 E9.04718
G1 X68.569 Y149.619 E9.06892
G1 X66.629 Y149.529 E9.13700
G1 X65.949 Y149.459 E9.16097
G1 X64.029 Y149.169 E9.22905
G1 X63.409 Y149.049 E9.25119
G1 X61.529 Y148.579 E9.31913
G1 X60.899 Y148.389 E9.34220
G1 X59.079 Y147.739 E9.40995
G1 X58.469 Y147.479 E9.43320
G1 X56.719 Y146.649 E9.50110
G1 X56.159 Y146.359 E9.52321
G1 X54.499 Y145.369 E9.59098
G1 X53.939 Y144.989 E9.61470
G1 X52.379 Y143.829 E9.68286
G1 X51.889 Y143.429 E9.70503
G1 X50.449 Y142.129 E9.77305
G1 X49.969 Y141.649 E9.79685
G1 X48.669 Y140.209 E9.86486
G1 X48.269 Y139.719 E9.88704
G1 X47.109 Y138.159 E9.95519
G1 X46.729 Y137.599 E9.97892
G1 X45.739 Y135.939 E10.04668
G1 X45.449 Y135.379 E10.06879
G1 X44.619 Y133.629 E10.13669
G1 X44.359 Y133.019 E10.15994
G1 X43.709 Y131.199 E10.22770
G1 X43.539 Y130.649 E10.24788
G1 X34.749 Y97.229 E11.45940
G1 X34.539 Y95.859 E11.50800
G1 X34.619 Y94.479 E11.55646
G1 X34.979 Y93.139 E11.60510
G1 X35.609 Y91.909 E11.65355
G1 X36.479 Y90.829 E11.70217
G1 X64.699 Y62.618 E13.10112
G1 F1800.000 E11.70112
G92 E0
G1 X67.533 Y109.535 F9000.000
G1 E1.40000 F1800.000
G1 X68.881 Y109.469 E1.44733 F1080.000
G1 X70.230 Y109.535 E1.49467
G1 X71.566 Y109.734 E1.54201
G1 X72.875 Y110.062 E1.58934
G1 X74.146 Y110.517 E1.63668
G1 X75.367 Y111.094 E1.68401
G1 X76.525 Y111.788 E1.73135
G1 X77.609 Y112.592 E1.77868
G1 X78.610 Y113.499 E1.82602
G1 X79.517 Y114.499 E1.87336
G1 X80.321 Y115.584 E1.92069
G1 X81.015 Y116.742 E1.96803
G1 X81.592 Y117.962 E2.01536
G1 X82.047 Y119.234 E2.06270
G1 X82.375 Y120.543 E2.11003
G1 X82.573 Y121.879 E2.15737
G1 X82.640 Y123.227 E2.20470
G1 X82.573 Y124.576 E2.25204
G1 X82.375 Y125.912 E2.29938
G1 X82.047 Y127.221 E2.34672
G1 X81.592 Y128.492 E2.39405
G1 X81.015 Y129.713 E2.44138
G1 X80.321 Y130.871 E2.48872
G1 X79.517 Y131.956 E2.53606
G1 X78.610 Y132.956 E2.58339
G1 X77.610 Y133.863 E2.63073
G1 X76.525 Y134.667 E2.67806
G1 X75.367 Y135.361 E2.72540
G1 X74.146 Y135.938 E2.77273
G1 X72.875 Y136.393 E2.82007
G1 X71.565 Y136.721 E2.86741
G1 X70.230 Y136.920 E2.91474
G1 X68.881 Y136.986 E2.96208
G1 X67.533 Y136.920 E3.00942
G1 X66.197 Y136.721 E3.05675
G1 X64.888 Y136.393 E3.10409
G1 X63.616 Y135.938 E3.15142
G1 X62.396 Y135.361 E3.19876
G1 X61.238 Y134.667 E3.24610
G1 X60.153 Y133.863 E3.29343
G1 X59.153 Y132.956 E3.34077
G1 X58.246 Y131.956 E3.38810
G1 X57.442 Y130.871 E3.43543
G1 X56.748 Y129.713 E3.48277
G1 X56.170 Y128.492 E3.53011
G1 X55.715 Y127.221 E3.57745
G1 X55.387 Y125.912 E3.62478
G1 X55.189 Y124.576 E3.67212
G1 X55.123 Y123.227 E3.71946
G1 X55.189 Y121.879 E3.76679
G1 X55.387 Y120.543 E3.81413
G1 X55.715 Y119.234 E3.86146
G1 X56.170 Y117.962 E3.90880
G1 X56.748 Y116.742 E3.95614
G1 X57.442 Y115.584 E4.00347
G1 X58.246 Y114.499 E4.05081
G1 X59.153 Y113.499 E4.09814
G1 X60.153 Y112.592 E4.14548
G1 X61.238 Y111.788 E4.19282
G1 X62.396 Y111.094 E4.24015
G1 X63.616 Y110.516 E4.28749
G1 X64.887 Y110.062 E4.33482
G1 X66.197 Y109.734 E4.38216
G1 X67.435 Y109.550 E4.42604
G1 X67.575 Y110.193 F9000.000
G1 X68.881 Y110.127 E4.47190 F756.000
G1 X70.165 Y110.190 E4.51698
G1 X71.437 Y110.379 E4.56205
G1 X72.684 Y110.691 E4.60712
G1 X73.895 Y111.124 E4.65219
G1 X75.057 Y111.674 E4.69727
G1 X76.159 Y112.335 E4.74234
G1 X77.192 Y113.101 E4.78741
G1 X78.145 Y113.964 E4.83248
G1 X79.008 Y114.917 E4.87756
G1 X79.774 Y115.949 E4.92263
G1 X80.435 Y117.052 E4.96770
G1 X80.984 Y118.214 E5.01277
G1 X81.418 Y119.425 E5.05784
G1 X81.730 Y120.672 E5.10292
G1 X81.919 Y121.943 E5.14799
G1 X81.982 Y123.227 E5.19306
G1 X81.919 Y124.512 E5.23814
G1 X81.730 Y125.783 E5.28321
G1 X81.418 Y127.030 E5.32828
G1 X80.985 Y128.241 E5.37335
G1 X80.435 Y129.403 E5.41842
G1 X79.774 Y130.506 E5.46350
G1 X79.008 Y131.538 E5.50857
G1 X78.145 Y132.491 E5.55364
G1 X77.192 Y133.354 E5.59871
G1 X76.159 Y134.120 E5.64379
G1 X75.057 Y134.781 E5.68886
G1 X73.895 Y135.331 E5.73393
G1 X72.684 Y135.764 E5.77900
G1 X71.437 Y136.076 E5.82408
G1 X70.165 Y136.265 E5.86915
G1 X68.881 Y136.328 E5.91422
G1 X67.597 Y136.265 E5.95929
G1 X66.326 Y136.076 E6.00437
G1 X65.078 Y135.764 E6.04944
G1 X63.868 Y135.331 E6.09451
G1 X62.706 Y134.781 E6.13958
G1 X61.603 Y134.120 E6.18466
G1 X60.570 Y133.354 E6.22973
G1 X59.618 Y132.491 E6.27480
G1 X58.755 Y131.538 E6.31987
G1 X57.989 Y130.506 E6.36494
G1 X57.328 Y129.403 E6.41002
G1 X56.778 Y128.241 E6.45509
G1 X56.345 Y127.030 E6.50016
G1 X56.033 Y125.783 E6.54524
G1 X55.844 Y124.512 E6.59031
G1 X55.781 Y123.227 E6.63538
G1 X55.844 Y121.943 E6.68045
G1 X56.033 Y120.672 E6.72553
G1 X56.345 Y119.425 E6.77060
G1 X56.778 Y118.214 E6.81567
G1 X57.328 Y117.052 E6.86074
G1 X57.989 Y115.949 E6.90582
G1 X58.755 Y114.917 E6.95089
G1 X59.618 Y113.964 E6.99596
G1 X60.570 Y113.101 E7.04103
G1 X61.603 Y112.335 E7.08611
G1 X62.706 Y111.674 E7.13118
G1 X63.868 Y111.124 E7.17625
G1 X65.078 Y110.691 E7.22132
G1 X66.326 Y110.379 E7.26640
G1 X67.477 Y110.208 E7.30722
G1 X67.855 Y109.599 F9000.000
G1 X80.261 Y108.277 F9000.000
G1 X82.134 Y109.975 E7.39585 F1080.000
G1 X83.369 Y111.338 E7.46033
G1 X84.464 Y112.815 E7.52481
G1 X85.410 Y114.393 E7.58930
G1 X86.196 Y116.055 E7.65378
G1 X86.816 Y117.787 E7.71826
G1 X87.263 Y119.571 E7.78274
G1 X87.533 Y121.390 E7.84722
G1 X87.623 Y123.227 E7.91170
G1 X87.533 Y125.064 E7.97618
G1 X87.263 Y126.884 E8.04067
G1 X86.816 Y128.668 E8.10515
G1 X86.196 Y130.400 E8.16963
G1 X85.410 Y132.062 E8.23411
G1 X84.464 Y133.640 E8.29859
G1 X83.369 Y135.117 E8.36307
G1 X82.134 Y136.480 E8.42756
G1 X80.771 Y137.715 E8.49204
G1 X79.294 Y138.811 E8.55652
G1 X77.716 Y139.756 E8.62100
G1 X76.053 Y140.543 E8.68548
G1 X74.322 Y141.162 E8.74996
G1 X72.538 Y141.609 E8.81444
G1 X70.718 Y141.879 E8.87893
G1 X68.881 Y141.969 E8.94341
G1 X67.044 Y141.879 E9.00789
G1 X65.225 Y141.609 E9.07237
G1 X63.441 Y141.162 E9.13685
G1 X61.709 Y140.543 E9.20133
G1 X60.047 Y139.756 E9.26581
G1 X58.469 Y138.811 E9.33030
G1 X56.992 Y137.715 E9.39478
G1 X55.629 Y136.480 E9.45926
G1 X54.394 Y135.117 E9.52374
G1 X53.298 Y133.640 E9.58822
G1 X52.353 Y132.062 E9.65270
G1 X51.566 Y130.400 E9.71718
G1 X50.947 Y128.668 E9.78167
G1 X50.500 Y126.884 E9.84615
G1 X50.373 Y126.027 E9.87650
G1 X42.321 Y95.846 E10.97165
G1 X69.482 Y68.684 E12.31835
G1 X87.010 Y86.212 E13.18738
G1 X80.289 Y108.183 E13.99291
G1 X81.011 Y108.071 F9000.000
G1 X82.599 Y109.510 E14.06804 F756.000
G1 X83.877 Y110.921 E14.13479
G1 X85.011 Y112.450 E14.20153
G1 X85.990 Y114.083 E14.26828
G1 X86.804 Y115.804 E14.33502
G1 X87.446 Y117.596 E14.40177
G1 X87.908 Y119.443 E14.46851
G1 X88.187 Y121.326 E14.53526
G1 X88.281 Y123.227 E14.60200
G1 X88.187 Y125.129 E14.66875
G1 X87.908 Y127.012 E14.73549
G1 X87.446 Y128.859 E14.80224
G1 X86.804 Y130.651 E14.86898
G1 X85.990 Y132.372 E14.93573
G1 X85.011 Y134.005 E15.00247
G1 X83.877 Y135.534 E15.06922
G1 X82.599 Y136.945 E15.13596
G1 X81.188 Y138.224 E15.20271
G1 X79.659 Y139.358 E15.26945
G1 X78.026 Y140.336 E15.33620
G1 X76.305 Y141.150 E15.40294
G1 X74.513 Y141.792 E15.46969
G1 X72.666 Y142.254 E15.53643
G1 X70.783 Y142.534 E15.60318
G1 X68.881 Y142.627 E15.66992
G1 X66.980 Y142.534 E15.73667
G1 X65.097 Y142.254 E15.80341
G1 X63.250 Y141.792 E15.87016
G1 X61.457 Y141.150 E15.93690
G1 X59.736 Y140.336 E16.00365
G1 X58.103 Y139.358 E16.07039
G1 X56.574 Y138.224 E16.13714
G1 X55.164 Y136.945 E16.20388
G1 X53.885 Y135.534 E16.27062
G1 X52.751 Y134.005 E16.33737
G1 X51.772 Y132.372 E16.40411
G1 X50.958 Y130.651 E16.47086
G1 X50.317 Y128.859 E16.53760
G1 X49.854 Y127.012 E16.60435
G1 X49.728 Y126.161 E16.63453
G1 X41.588 Y95.649 E17.74165
G1 X69.482 Y67.755 E19.12467
G1 X87.754 Y86.026 E20.03058
G1 X81.040 Y107.976 E20.83533
G1 X80.645 Y108.617 F9000.000
G1 X79.936 Y107.823 F9000.000
G1 X55.476 Y83.364 E22.05390 F1080.000
G1 X55.943 Y82.897 E22.07716
G1 X80.154 Y107.108 E23.28336
G1 X80.373 Y106.393 E23.30971
G1 X56.410 Y82.430 E24.50355
G1 X56.877 Y81.963 E24.52681
G1 X80.592 Y105.678 E25.70829
G1 X80.811 Y104.963 E25.73463
G1 X57.344 Y81.496 E26.90375
G1 X57.811 Y81.029 E26.92701
G1 X81.029 Y104.248 E28.08377
G1 X81.248 Y103.533 E28.11011
G1 X58.278 Y80.563 E29.25450
G1 X58.744 Y80.096 E29.27776
G1 X81.467 Y102.818 E30.40979
G1 X81.685 Y102.103 E30.43613
G1 X59.211 Y79.629 E31.55579
G1 X59.678 Y79.162 E31.57905
G1 X81.904 Y101.388 E32.68636
G1 X82.123 Y100.673 E32.71270
G1 X60.145 Y78.695 E33.80764
G1 X60.612 Y78.228 E33.83090
G1 X82.342 Y99.958 E34.91347
G1 X82.560 Y99.243 E34.93981
G1 X61.079 Y77.761 E36.01003
G1 X61.546 Y77.295 E36.03329
G1 X82.779 Y98.528 E37.09114
G1 X82.998 Y97.813 E37.11748
G1 X62.012 Y76.828 E38.16296
G1 X62.479 Y76.361 E38.18622
G1 X83.216 Y97.098 E39.21935
G1 X83.435 Y96.383 E39.24569
G1 X62.946 Y75.894 E40.26645
G1 X63.413 Y75.427 E40.28971
G1 X83.654 Y95.668 E41.29810
G1 X83.873 Y94.953 E41.32444
G1 X63.880 Y74.960 E42.32048
G1 X64.347 Y74.493 E42.34374
G1 X84.091 Y94.238 E43.32741
G1 X84.310 Y93.523 E43.35375
G1 X64.814 Y74.026 E44.32506
G1 X65.281 Y73.560 E44.34832
G1 X84.529 Y92.808 E45.30726
G1 X84.747 Y92.093 E45.33360
G1 X65.747 Y73.093 E46.28018
G1 X66.214 Y72.626 E46.30344
G1 X84.966 Y91.378 E47.23766
G1 X85.185 Y90.663 E47.26400
G1 X66.681 Y72.159 E48.18586
G1 X67.148 Y71.692 E48.20912
G1 X85.404 Y89.948 E49.11861
G1 X85.622 Y89.233 E49.14495
G1 X67.615 Y71.225 E50.04208
G1 X68.082 Y70.758 E50.06534
G1 X85.841 Y88.518 E50.95010
G1 X86.060 Y87.803 E50.97644
G1 X68.549 Y70.292 E51.84884
G1 X69.015 Y69.825 E51.87210
G1 X86.278 Y87.088 E52.73214
G1 X86.497 Y86.373 E52.75848
G1 X69.482 Y69.358 E53.60616
G1 X73.536 Y109.827 F9000.000
G1 X51.275 Y87.566 E54.71524 F1080.000
G1 X50.808 Y88.032 E54.73850
G1 X72.214 Y109.439 E55.80497
G1 X71.053 Y109.212 E55.84666
G1 X50.341 Y88.499 E56.87854
G1 X49.874 Y88.966 E56.90180
G1 X69.987 Y109.080 E57.90386
G1 X69.005 Y109.031 E57.93849
G1 X49.407 Y89.433 E58.91488
G1 X48.940 Y89.900 E58.93814
G1 X68.104 Y109.063 E59.89287
G1 X67.238 Y109.131 E59.92348
G1 X48.473 Y90.367 E60.85831
G1 X48.007 Y90.834 E60.88157
G1 X66.424 Y109.252 E61.79916
G1 X65.652 Y109.413 E61.82695
G1 X47.540 Y91.301 E62.72932
G1 X47.073 Y91.767 E62.75258
G1 X64.905 Y109.600 E63.64100
G1 X64.206 Y109.835 E63.66699
G1 X46.606 Y92.234 E64.54383
G1 X46.139 Y92.701 E64.56709
G1 X63.518 Y110.081 E65.43294
G1 X62.879 Y110.375 E65.45774
G1 X45.672 Y93.168 E66.31498
G1 X45.205 Y93.635 E66.33824
G1 X62.245 Y110.675 E67.18716
G1 X61.657 Y111.020 E67.21119
G1 X44.738 Y94.102 E68.05405
G1 X44.272 Y94.569 E68.07731
G1 X61.073 Y111.370 E68.91435
G1 X60.530 Y111.761 E68.93792
G1 X43.805 Y95.035 E69.77117
G1 X43.338 Y95.502 E69.79443
G1 X59.994 Y112.158 E70.62423
G1 X59.493 Y112.592 E70.64755
G1 X42.871 Y95.969 E71.47569
G1 X43.131 Y97.163 E71.51873
G1 X59.004 Y113.036 E72.30950
G1 X58.544 Y113.510 E72.33276
G1 X43.471 Y98.436 E73.08373
G1 X43.811 Y99.710 E73.13016
G1 X58.100 Y114.000 E73.84208
G1 X57.682 Y114.515 E73.86546
G1 X44.150 Y100.983 E74.53962
G1 X44.490 Y102.257 E74.58606
G1 X57.285 Y115.051 E75.22348
G1 X56.909 Y115.610 E75.24718
G1 X44.830 Y103.530 E75.84898
G1 X45.169 Y104.804 E75.89541
G1 X56.559 Y116.194 E76.46285
G1 X56.230 Y116.798 E76.48711
G1 X45.509 Y106.077 E77.02123
G1 X45.849 Y107.351 E77.06766
G1 X55.931 Y117.432 E77.56993
G1 X55.654 Y118.089 E77.59505
G1 X46.189 Y108.624 E78.06661
G1 X46.528 Y109.898 E78.11304
G1 X55.408 Y118.777 E78.55541
G1 X55.193 Y119.496 E78.58184
G1 X46.868 Y111.171 E78.99657
G1 X47.208 Y112.445 E79.04300
G1 X55.006 Y120.242 E79.43148
G1 X54.866 Y121.036 E79.45989
G1 X47.548 Y113.718 E79.82449
G1 X47.887 Y114.992 E79.87092
G1 X54.747 Y121.851 E80.21265
G1 X54.703 Y122.741 E80.24404
G1 X48.227 Y116.265 E80.56667
G1 X48.567 Y117.539 E80.61310
G1 X54.701 Y123.673 E80.91871
G1 X54.753 Y124.659 E80.95349
G1 X48.907 Y118.812 E81.24478
G1 X49.246 Y120.085 E81.29121
G1 X54.916 Y125.755 E81.57367
G1 X55.195 Y126.968 E81.61750
G1 X49.586 Y121.359 E81.89693
G1 X49.926 Y122.632 E81.94336
G1 X55.651 Y128.358 E82.22860
G1 X56.467 Y130.107 F9000.000
G1 X50.266 Y123.906 E82.53756 F1080.000
G1 X50.605 Y125.179 E82.58399
G1 X66.824 Y141.398 E83.39201
G1 X65.728 Y141.235 E83.43105
G1 X50.873 Y126.381 E84.17109
G1 X51.129 Y127.570 E84.21394
G1 X64.539 Y140.980 E84.88202
G1 X63.246 Y140.622 E84.92925
G1 X51.487 Y128.862 E85.51511
G1 X52.026 Y130.335 F9000.000
G1 X61.774 Y140.083 E86.00073 F1080.000
G1 X59.922 Y139.165 F9000.000
G1 X52.944 Y132.187 E86.34836 F1080.000
G1 X55.490 Y135.667 F9000.000
G1 X56.442 Y136.618 E86.39576 F1080.000
G1 X62.001 Y135.642 F9000.000
G1 X67.833 Y141.474 E86.68631 F1080.000
G1 X63.751 Y136.458 F9000.000
G1 X68.815 Y141.522 E86.93862 F1080.000
G1 X69.712 Y141.484 E86.97022
G1 X65.141 Y136.914 E87.19793
G1 X66.354 Y137.193 E87.24176
G1 X70.602 Y141.441 E87.45340
G1 X71.421 Y141.326 E87.48254
G1 X67.450 Y137.355 E87.68038
G1 X68.436 Y137.408 E87.71517
G1 X72.234 Y141.206 E87.90439
G1 X72.999 Y141.037 E87.93197
G1 X69.368 Y137.406 E88.11286
G1 X70.258 Y137.362 E88.14425
G1 X73.745 Y140.850 E88.31799
G1 X74.468 Y140.639 E88.34453
G1 X71.072 Y137.243 E88.51372
G1 X71.866 Y137.103 E88.54212
G1 X75.156 Y140.393 E88.70601
G1 X75.844 Y140.147 E88.73174
G1 X72.613 Y136.916 E88.89270
G1 X73.332 Y136.701 E88.91912
G1 X76.481 Y139.850 E89.07601
G1 X77.115 Y139.550 E89.10071
G1 X74.019 Y136.455 E89.25493
G1 X74.676 Y136.178 E89.28004
G1 X77.729 Y139.231 E89.43215
G1 X78.313 Y138.881 E89.45612
G1 X75.310 Y135.878 E89.60573
G1 X75.915 Y135.549 E89.62998
G1 X78.897 Y138.531 E89.77854
G1 X79.445 Y138.146 E89.80215
G1 X76.499 Y135.200 E89.94895
G1 X77.057 Y134.824 E89.97265
G1 X79.982 Y137.748 E90.11834
G1 X80.515 Y137.348 E90.14183
G1 X77.593 Y134.427 E90.28740
G1 X78.109 Y134.008 E90.31078
G1 X81.005 Y136.904 E90.45506
G1 X81.487 Y136.452 E90.47833
G1 X78.599 Y133.564 E90.62221
G1 X79.073 Y133.105 E90.64547
G1 X81.954 Y135.985 E90.78897
G1 X82.413 Y135.511 E90.81224
G1 X79.517 Y132.615 E90.95652
G1 X79.950 Y132.115 E90.97984
G1 X82.857 Y135.022 E91.12464
G1 X83.272 Y134.503 E91.14805
G1 X80.348 Y131.579 E91.29373
G1 X80.739 Y131.036 E91.31730
G1 X83.670 Y133.967 E91.46331
G1 X84.067 Y133.431 E91.48683
G1 X81.089 Y130.452 E91.63522
G1 X81.434 Y129.864 E91.65926
G1 X84.421 Y132.850 E91.80805
